;FLAVOR:Marlin
;TIME:136
;Filament used: 0.0410146m
;Layer height: 0.2
;MINX:140.944
;MINY:135.106
;MINZ:0.2
;MAXX:167.525
;MAXY:161.69
;MAXZ:7.6
;TARGET_MACHINE.NAME:LONGER LK5 Pro
;Generated with Cura_SteamEngine 5.7.1
M140 S60
M105
M190 S60
M104 S205
M105
M109 S205
M82 ;absolute extrusion mode
; LONGER Start G-code
G21 ; metric values
G90 ; absolute positioning
M82 ; set extruder to absolute mode
M107 ; start with the fan off
G92 E0 ; Reset Extruder
G28 ; Home all axes
G1 Z2.0 F3000 ; Move Z Axis up little to prevent scratching of Heat Bed
G1 X0.1 Y20 Z0.3 F5000.0 ; Move to start position
G1 X0.1 Y200.0 Z0.3 F1500.0 E15 ; Draw the first line
G1 X0.4 Y200.0 Z0.3 F5000.0 ; Move to side a little
G1 X0.4 Y20 Z0.3 F1500.0 E30 ; Draw the second line
G92 E0 ; Reset Extruder
G1 Z2.0 F3000 ; Move Z Axis up little to prevent scratching of Heat Bed
G1 X5 Y20 Z0.3 F5000.0 ; Move over to prevent blob squish

G92 E0
G92 E0
G1 F2700 E-5
;LAYER_COUNT:38
;LAYER:0
M107
G0 F6000 X144.536 Y139.3 Z0.2
;TYPE:SKIRT
G1 F2700 E0
G1 F1200 X145.245 Y138.608 E0.03295
G1 X145.521 Y138.363 E0.04523
G1 X146.245 Y137.773 E0.07629
G1 X146.933 Y137.297 E0.10412
G1 X147.341 Y137.037 E0.12021
G1 X148.216 Y136.535 E0.15376
G1 X149.068 Y136.14 E0.18499
G1 X150.132 Y135.76 E0.22257
G1 X150.624 Y135.613 E0.23965
G1 X151.611 Y135.368 E0.27348
G1 X152.702 Y135.203 E0.31017
G1 X153.23 Y135.154 E0.32781
G1 X154.244 Y135.106 E0.36157
G1 X155.413 Y135.16 E0.4005
G1 X156.448 Y135.294 E0.43521
G1 X157.604 Y135.543 E0.47454
G1 X158.559 Y135.839 E0.50779
G1 X158.986 Y135.993 E0.52289
G1 X159.855 Y136.353 E0.55418
G1 X160.84 Y136.868 E0.59115
G1 X161.177 Y137.068 E0.60418
G1 X162.022 Y137.62 E0.63775
G1 X162.806 Y138.236 E0.67091
G1 X163.441 Y138.819 E0.69958
G1 X164.441 Y139.883 E0.74815
G1 X165.422 Y141.228 E0.80352
G1 X165.61 Y141.531 E0.81538
G1 X166.114 Y142.427 E0.84957
G1 X166.64 Y143.638 E0.89348
G1 X166.799 Y144.075 E0.90895
G1 X167.104 Y145.054 E0.94306
G1 X167.309 Y145.992 E0.97499
G1 X167.365 Y146.315 E0.98589
G1 X167.49 Y147.322 E1.01964
G1 X167.525 Y148.386 E1.05505
G1 X167.516 Y148.863 E1.07092
G1 X167.451 Y149.879 E1.10478
G1 X167.272 Y151.011 E1.1429
G1 X167.193 Y151.376 E1.15532
G1 X166.803 Y152.748 E1.20276
G1 X166.674 Y153.108 E1.21548
G1 X166.285 Y154.057 E1.24959
G1 X165.842 Y154.916 E1.28174
G1 X165.437 Y155.574 E1.30744
G1 X165.225 Y155.892 E1.32015
G1 X164.272 Y157.135 E1.37224
G1 X163.409 Y158.034 E1.41369
G1 X162.612 Y158.722 E1.44871
G1 X162.326 Y158.946 E1.46079
G1 X161.103 Y159.786 E1.51014
G1 X160.076 Y160.345 E1.54903
G1 X159.296 Y160.693 E1.57744
G1 X158.421 Y161.023 E1.60854
G1 X157.49 Y161.293 E1.64078
G1 X156.608 Y161.487 E1.67082
G1 X155.61 Y161.621 E1.70431
G1 X154.423 Y161.689 E1.74386
G1 X153.985 Y161.69 E1.75842
G1 X153.082 Y161.652 E1.78849
G1 X151.812 Y161.476 E1.83113
G1 X151.428 Y161.4 E1.84415
G1 X150.451 Y161.158 E1.87763
G1 X149.578 Y160.863 E1.90828
G1 X149.208 Y160.718 E1.92149
G1 X148.287 Y160.311 E1.95498
G1 X147.471 Y159.864 E1.98593
G1 X146.924 Y159.513 E2.00755
G1 X146.476 Y159.207 E2.02559
G1 X145.727 Y158.643 E2.05677
G1 X144.922 Y157.916 E2.09285
G1 X144.232 Y157.169 E2.12667
G1 X143.995 Y156.887 E2.13893
G1 X143.332 Y156.014 E2.17539
G1 X143.137 Y155.727 E2.18693
G1 X142.61 Y154.872 E2.22033
G1 X142.136 Y153.931 E2.25538
G1 X141.713 Y152.878 E2.29312
G1 X141.607 Y152.569 E2.30399
G1 X141.328 Y151.625 E2.33673
G1 X141.085 Y150.36 E2.37957
G1 X141.026 Y149.908 E2.39473
G1 X140.944 Y148.949 E2.42674
G1 X140.968 Y147.543 E2.47351
G1 X141.004 Y147.113 E2.48787
G1 X141.137 Y146.095 E2.52201
G1 X141.421 Y144.879 E2.56354
G1 X141.588 Y144.318 E2.58301
G1 X141.885 Y143.465 E2.61305
G1 X142.535 Y142.09 E2.66364
G1 X142.717 Y141.763 E2.67609
G1 X143.191 Y140.994 E2.70613
G1 X143.646 Y140.366 E2.73193
G1 X143.878 Y140.068 E2.74449
G1 X144.016 Y139.907 E2.75154
G0 F1080 X144.536 Y139.3
G0 F6000 X144.816 Y139.586
G1 F1200 X145.511 Y138.907 E2.78386
G1 X145.774 Y138.673 E2.79556
G1 X146.498 Y138.083 E2.82663
G1 X147.148 Y137.634 E2.8529
G1 X147.541 Y137.384 E2.8684
G1 X148.385 Y136.898 E2.90079
G1 X149.203 Y136.517 E2.9308
G1 X150.267 Y136.137 E2.96838
G1 X150.721 Y136.001 E2.98414
G1 X151.671 Y135.764 E3.01671
G1 X152.762 Y135.599 E3.05341
G1 X153.25 Y135.554 E3.06971
G1 X154.226 Y135.506 E3.10221
G1 X155.362 Y135.557 E3.14003
G1 X156.364 Y135.685 E3.17363
G1 X157.486 Y135.925 E3.21179
G1 X158.423 Y136.215 E3.24441
G1 X158.833 Y136.363 E3.25891
G1 X159.702 Y136.723 E3.2902
G1 X160.636 Y137.212 E3.32526
G1 X160.959 Y137.403 E3.33774
G1 X161.775 Y137.935 E3.37014
G1 X162.535 Y138.531 E3.40226
G1 X163.17 Y139.114 E3.43094
G1 X164.149 Y140.157 E3.47851
G1 X165.083 Y141.44 E3.5313
G1 X165.262 Y141.727 E3.54255
G1 X165.747 Y142.587 E3.57538
G1 X166.264 Y143.775 E3.61848
G1 X166.417 Y144.194 E3.63331
G1 X166.713 Y145.14 E3.66628
G1 X166.915 Y146.06 E3.69761
G1 X166.968 Y146.365 E3.70791
G1 X167.09 Y147.335 E3.74042
G1 X167.125 Y148.379 E3.77517
G1 X167.117 Y148.838 E3.79043
G1 X167.056 Y149.817 E3.82306
G1 X166.881 Y150.927 E3.86043
G1 X166.808 Y151.267 E3.872
G1 X166.426 Y152.613 E3.91854
G1 X166.297 Y152.973 E3.93126
G1 X165.929 Y153.874 E3.96363
G1 X165.501 Y154.706 E3.99475
G1 X165.096 Y155.364 E4.02044
G1 X164.892 Y155.67 E4.03268
G1 X163.955 Y156.891 E4.08387
G1 X163.148 Y157.731 E4.12261
G1 X162.365 Y158.407 E4.15701
G1 X162.079 Y158.631 E4.1691
G1 X160.877 Y159.456 E4.21759
G1 X159.913 Y159.98 E4.25408
G1 X159.154 Y160.319 E4.28173
G1 X158.309 Y160.639 E4.31178
G1 X157.404 Y160.902 E4.34313
G1 X156.522 Y161.096 E4.37316
G1 X155.587 Y161.222 E4.40454
G1 X154.422 Y161.289 E4.44335
G1 X154.002 Y161.29 E4.45732
G1 X153.099 Y161.252 E4.48738
G1 X151.889 Y161.084 E4.52802
G1 X151.524 Y161.012 E4.54039
G1 X150.579 Y160.779 E4.57276
G1 X149.723 Y160.49 E4.60281
G1 X149.369 Y160.352 E4.61545
G1 X148.479 Y159.96 E4.64779
G1 X147.663 Y159.513 E4.67874
G1 X147.15 Y159.183 E4.69903
G1 X146.717 Y158.887 E4.71647
G1 X145.968 Y158.323 E4.74766
G1 X145.216 Y157.645 E4.78133
G1 X144.538 Y156.911 E4.81457
G1 X144.314 Y156.645 E4.82613
G1 X143.651 Y155.772 E4.86259
G1 X143.477 Y155.517 E4.87286
G1 X142.967 Y154.691 E4.90515
G1 X142.507 Y153.782 E4.93903
G1 X142.091 Y152.748 E4.9761
G1 X141.991 Y152.456 E4.98637
G1 X141.712 Y151.512 E5.01911
G1 X141.482 Y150.308 E5.05988
G1 X141.425 Y149.874 E5.07444
G1 X141.343 Y148.915 E5.10645
G1 X141.367 Y147.576 E5.15099
G1 X141.401 Y147.164 E5.16474
G1 X141.527 Y146.186 E5.19754
G1 X141.811 Y144.97 E5.23907
G1 X141.966 Y144.45 E5.25712
G1 X142.263 Y143.597 E5.28716
G1 X142.885 Y142.284 E5.33548
G1 X143.058 Y141.973 E5.34732
G1 X143.532 Y141.204 E5.37737
G1 X143.962 Y140.611 E5.40173
G1 X144.182 Y140.328 E5.41365
G1 X144.297 Y140.194 E5.41952
G0 F1080 X144.816 Y139.586
G0 F6000 X145.096 Y139.872
G1 F1200 X145.777 Y139.206 E5.45121
G1 X146.027 Y138.983 E5.46235
G1 X146.726 Y138.412 E5.49237
G1 X147.363 Y137.971 E5.51814
G1 X147.741 Y137.73 E5.53305
G1 X148.554 Y137.261 E5.56426
G1 X149.372 Y136.88 E5.59428
G1 X150.382 Y136.52 E5.62994
G1 X150.818 Y136.389 E5.64508
G1 X151.731 Y136.16 E5.67639
G1 X152.822 Y135.995 E5.71309
G1 X153.27 Y135.953 E5.72805
G1 X154.209 Y135.906 E5.75932
G1 X155.311 Y135.954 E5.79601
G1 X156.313 Y136.082 E5.82961
G1 X157.368 Y136.307 E5.86549
G1 X158.287 Y136.591 E5.89748
G1 X158.68 Y136.733 E5.91138
G1 X159.549 Y137.093 E5.94266
G1 X160.433 Y137.557 E5.97587
G1 X160.741 Y137.738 E5.98775
G1 X161.528 Y138.25 E6.01898
G1 X162.264 Y138.826 E6.05006
G1 X162.899 Y139.409 E6.07874
G1 X163.857 Y140.431 E6.12533
G1 X164.744 Y141.653 E6.17555
G1 X164.914 Y141.924 E6.18619
G1 X165.38 Y142.747 E6.21765
G1 X165.888 Y143.912 E6.25992
G1 X166.035 Y144.314 E6.27415
G1 X166.322 Y145.226 E6.30595
G1 X166.521 Y146.129 E6.33671
G1 X166.571 Y146.416 E6.3464
G1 X166.69 Y147.349 E6.37768
G1 X166.725 Y148.373 E6.41176
G1 X166.718 Y148.814 E6.42643
G1 X166.661 Y149.755 E6.45778
G1 X166.49 Y150.844 E6.49445
G1 X166.423 Y151.158 E6.50513
G1 X166.049 Y152.479 E6.55079
G1 X165.927 Y152.822 E6.5629
G1 X165.573 Y153.691 E6.59411
G1 X165.145 Y154.523 E6.62523
G1 X164.763 Y155.142 E6.64942
G1 X164.559 Y155.448 E6.66165
G1 X163.638 Y156.647 E6.71194
G1 X162.887 Y157.428 E6.74798
G1 X162.118 Y158.092 E6.78177
G1 X161.832 Y158.316 E6.79385
G1 X160.686 Y159.105 E6.84013
G1 X159.75 Y159.615 E6.87558
G1 X159.012 Y159.945 E6.90247
G1 X158.167 Y160.265 E6.93252
G1 X157.318 Y160.511 E6.96192
G1 X156.436 Y160.705 E6.99196
G1 X155.564 Y160.823 E7.02122
G1 X154.421 Y160.889 E7.0593
G1 X154.019 Y160.89 E7.07267
G1 X153.116 Y160.852 E7.10273
G1 X151.967 Y160.692 E7.14132
G1 X151.619 Y160.623 E7.15312
G1 X150.707 Y160.4 E7.18435
G1 X149.868 Y160.117 E7.2138
G1 X149.53 Y159.986 E7.22585
G1 X148.671 Y159.609 E7.25705
G1 X147.879 Y159.176 E7.28707
G1 X147.376 Y158.853 E7.30696
G1 X146.958 Y158.567 E7.3238
G1 X146.209 Y158.003 E7.35499
G1 X145.51 Y157.374 E7.38626
G1 X144.844 Y156.653 E7.41891
G1 X144.62 Y156.387 E7.43048
G1 X143.981 Y155.546 E7.46561
G1 X143.817 Y155.306 E7.47527
G1 X143.324 Y154.51 E7.50642
G1 X142.878 Y153.632 E7.53917
G1 X142.469 Y152.617 E7.57557
G1 X142.374 Y152.342 E7.58524
G1 X142.105 Y151.437 E7.61664
G1 X141.879 Y150.256 E7.65664
G1 X141.824 Y149.84 E7.67059
G1 X141.742 Y148.881 E7.70261
G1 X141.766 Y147.608 E7.74495
G1 X141.798 Y147.214 E7.7581
G1 X141.917 Y146.277 E7.78952
G1 X142.201 Y145.061 E7.83105
G1 X142.344 Y144.582 E7.84768
G1 X142.641 Y143.729 E7.87772
G1 X143.235 Y142.478 E7.92378
G1 X143.399 Y142.183 E7.935
G1 X143.873 Y141.414 E7.96505
G1 X144.278 Y140.856 E7.98798
G1 X144.487 Y140.587 E7.99931
G1 X144.578 Y140.481 E8.00396
G0 F1080 X145.096 Y139.872
G0 F6000 X145.376 Y140.158
G1 F1200 X146.057 Y139.492 E8.03564
G1 X146.28 Y139.293 E8.04558
G1 X146.979 Y138.722 E8.0756
G1 X147.578 Y138.308 E8.09982
G1 X147.941 Y138.076 E8.11415
G1 X148.723 Y137.624 E8.14419
G1 X149.541 Y137.243 E8.1742
G1 X150.497 Y136.903 E8.20795
G1 X150.916 Y136.777 E8.2225
G1 X151.791 Y136.556 E8.25252
G1 X152.882 Y136.391 E8.28922
G1 X153.29 Y136.352 E8.30285
G1 X154.192 Y136.306 E8.33289
G1 X155.26 Y136.351 E8.36844
G1 X156.262 Y136.479 E8.40204
G1 X157.25 Y136.689 E8.43564
G1 X158.151 Y136.967 E8.467
G1 X158.528 Y137.103 E8.48033
G1 X159.363 Y137.447 E8.51036
G1 X160.231 Y137.902 E8.54296
G1 X160.524 Y138.074 E8.55426
G1 X161.282 Y138.565 E8.5843
G1 X161.993 Y139.121 E8.61432
G1 X162.628 Y139.704 E8.64299
G1 X163.565 Y140.704 E8.68857
G1 X164.405 Y141.866 E8.73626
G1 X164.566 Y142.122 E8.74632
G1 X165.013 Y142.907 E8.77636
G1 X165.512 Y144.049 E8.81781
G1 X165.659 Y144.451 E8.83205
G1 X165.931 Y145.312 E8.86208
G1 X166.127 Y146.198 E8.89226
G1 X166.174 Y146.467 E8.90135
G1 X166.29 Y147.363 E8.9314
G1 X166.325 Y148.367 E8.96481
G1 X166.319 Y148.791 E8.97891
G1 X166.266 Y149.693 E9.00897
G1 X166.099 Y150.761 E9.04492
G1 X166.038 Y151.049 E9.05471
G1 X165.672 Y152.345 E9.0995
G1 X165.556 Y152.672 E9.11104
G1 X165.217 Y153.509 E9.14108
G1 X164.805 Y154.313 E9.17112
G1 X164.43 Y154.92 E9.19486
G1 X164.226 Y155.226 E9.20709
G1 X163.349 Y156.37 E9.25503
G1 X162.625 Y157.125 E9.28982
G1 X161.871 Y157.777 E9.32298
G1 X161.585 Y158.001 E9.33506
G1 X160.494 Y158.754 E9.37915
G1 X159.586 Y159.25 E9.41356
G1 X158.87 Y159.571 E9.43966
G1 X158.025 Y159.891 E9.46971
G1 X157.232 Y160.12 E9.49717
G1 X156.35 Y160.314 E9.5272
G1 X155.541 Y160.424 E9.55436
G1 X154.42 Y160.489 E9.5917
G1 X154.036 Y160.49 E9.60448
G1 X153.133 Y160.452 E9.63454
G1 X152.044 Y160.299 E9.67111
G1 X151.713 Y160.234 E9.68233
G1 X150.835 Y160.021 E9.71238
G1 X150.012 Y159.744 E9.74126
G1 X149.69 Y159.62 E9.75274
G1 X148.863 Y159.258 E9.78277
G1 X148.071 Y158.825 E9.81279
G1 X147.602 Y158.523 E9.83134
G1 X147.198 Y158.247 E9.84761
G1 X146.476 Y157.705 E9.87764
G1 X145.804 Y157.102 E9.90767
G1 X145.15 Y156.395 E9.9397
G1 X144.926 Y156.129 E9.95127
G1 X144.311 Y155.32 E9.98507
G1 X144.157 Y155.095 E9.99414
G1 X143.68 Y154.328 E10.02418
G1 X143.249 Y153.482 E10.05576
G1 X142.847 Y152.485 E10.09151
G1 X142.757 Y152.227 E10.1006
G1 X142.498 Y151.362 E10.13063
G1 X142.276 Y150.204 E10.16985
G1 X142.221 Y149.788 E10.18381
G1 X142.142 Y148.888 E10.21386
G1 X142.165 Y147.64 E10.25537
G1 X142.195 Y147.264 E10.26792
G1 X142.307 Y146.368 E10.29795
G1 X142.591 Y145.152 E10.33948
G1 X142.722 Y144.714 E10.35469
G1 X143.019 Y143.861 E10.38473
G1 X143.584 Y142.673 E10.42848
G1 X143.74 Y142.393 E10.43915
G1 X144.214 Y141.624 E10.46919
G1 X144.594 Y141.101 E10.49069
G1 X144.792 Y140.846 E10.50143
G1 X144.859 Y140.768 E10.50485
G0 F1080 X145.376 Y140.158
G1 F2700 E5.50485
;MESH:fit test.stl
G0 F6000 X151.936 Y147.256
G0 X154.073 Y149.699
;TYPE:WALL-INNER
G1 F2700 E10.50485
G1 F1200 X154.45 Y149.691 E10.51739
G1 X154.817 Y149.572 E10.53022
G1 X155.123 Y149.357 E10.54266
G1 X155.283 Y149.181 E10.55057
G1 X155.427 Y148.939 E10.55994
G1 X155.548 Y148.453 E10.5766
G1 X155.497 Y148.088 E10.58886
G1 X155.419 Y147.872 E10.59649
G1 X155.211 Y147.544 E10.60941
G1 X155.052 Y147.386 E10.61687
G1 X154.796 Y147.227 E10.62689
G1 X154.547 Y147.136 E10.63571
G1 X154.246 Y147.1 E10.64579
G1 X153.966 Y147.124 E10.65514
G1 X153.696 Y147.213 E10.66459
G1 X153.448 Y147.362 E10.67422
G1 X153.148 Y147.682 E10.68881
G1 X153.037 Y147.872 E10.69612
G1 X152.932 Y148.295 E10.71062
G1 X152.963 Y148.721 E10.72483
G1 X153.126 Y149.096 E10.73843
G1 X153.423 Y149.433 E10.75337
G1 X153.535 Y149.503 E10.75776
G0 F1080 X153.664 Y149.584
G0 X154.073 Y149.699
G0 F6000 X154.275 Y150.111
;TYPE:WALL-OUTER
G1 F1200 X154.632 Y150.075 E10.76969
G1 X155.094 Y149.893 E10.78621
G1 X155.398 Y149.649 E10.79917
G1 X155.606 Y149.42 E10.80946
G1 X155.795 Y149.102 E10.82177
G1 X155.889 Y148.797 E10.83238
G1 X155.95 Y148.446 E10.84423
G1 X155.888 Y147.992 E10.85947
G1 X155.785 Y147.707 E10.86955
G1 X155.596 Y147.364 E10.88258
G1 X155.302 Y147.07 E10.89641
G1 X154.972 Y146.865 E10.90933
G1 X154.641 Y146.744 E10.92105
G1 X154.252 Y146.698 E10.93408
G1 X153.885 Y146.73 E10.94633
G1 X153.528 Y146.847 E10.95883
G1 X153.206 Y147.041 E10.97133
G1 X152.983 Y147.249 E10.98147
G1 X152.818 Y147.454 E10.99022
G1 X152.669 Y147.71 E11.00008
G1 X152.575 Y148.007 E11.01044
G1 X152.515 Y148.363 E11.02244
G1 X152.572 Y148.816 E11.03763
G1 X152.721 Y149.226 E11.05214
G1 X152.951 Y149.524 E11.06466
G1 X153.171 Y149.747 E11.07508
G1 X153.488 Y149.946 E11.08753
G1 X153.528 Y149.961 E11.08895
G0 F1080 X153.77 Y150.046
G0 X154.022 Y150.097
G0 X154.275 Y150.111
G0 F6000 X154.118 Y149.339
;TYPE:SKIN
G1 F1200 X153.819 Y149.255 E11.09928
G1 X153.652 Y149.15 E11.10584
G1 X153.432 Y148.899 E11.11694
G1 X153.318 Y148.635 E11.1265
G1 X153.294 Y148.321 E11.13698
G1 X153.385 Y147.949 E11.14972
G1 X153.667 Y147.65 E11.16339
G1 X153.845 Y147.543 E11.17029
G1 X154.232 Y147.461 E11.18345
G1 X154.631 Y147.549 E11.19704
G1 X154.888 Y147.71 E11.20713
G1 X155.137 Y148.096 E11.22241
G1 X155.169 Y148.484 E11.23535
G1 X155.095 Y148.785 E11.24566
G1 X154.869 Y149.095 E11.25842
G1 X154.653 Y149.246 E11.26719
G1 X154.524 Y149.288 E11.2717
G0 F1080 X154.386 Y149.332
G0 X154.118 Y149.339
G0 F6000 X154.227 Y149.136
G1 F1200 X153.501 Y148.41 E11.30585
G0 F6000 X153.634 Y147.977
G1 F1200 X154.656 Y148.999 E11.35392
G0 F6000 X154.913 Y148.69
G1 F1200 X153.946 Y147.723 E11.39941
G0 F6000 X154.511 Y147.723
G1 F1200 X154.924 Y148.136 E11.41883
G1 F2700 E6.41883
;MESH:NONMESH
G0 F300 X154.924 Y148.136 Z0.4
G0 F6000 X155.351 Y147.981
G0 X155.034 Y147.566
G0 X154.562 Y147.32
G0 X153.339 Y147.216
G0 X152.599 Y146.425
G0 X145.376 Y140.158
;TIME_ELAPSED:23.864492
;LAYER:1
M106 S85
;TYPE:SKIRT
G1 F2700 E11.41883
G1 F650 X146.057 Y139.492 E11.45051
G1 X146.28 Y139.293 E11.46046
G1 X146.979 Y138.722 E11.49047
G1 X147.578 Y138.308 E11.51469
G1 X147.941 Y138.076 E11.52902
G1 X148.723 Y137.624 E11.55906
G1 X149.541 Y137.243 E11.58908
G1 X150.497 Y136.903 E11.62282
G1 X150.916 Y136.777 E11.63738
G1 X151.791 Y136.556 E11.66739
G1 X152.882 Y136.391 E11.70409
G1 X153.29 Y136.352 E11.71772
G1 X154.192 Y136.306 E11.74776
G1 X155.26 Y136.351 E11.78332
G1 X156.262 Y136.479 E11.81692
G1 X157.25 Y136.689 E11.85051
G1 X158.151 Y136.967 E11.88187
G1 X158.528 Y137.103 E11.8952
